!!!COM: Palestrina, Giovanni Perluigi da
!!!OPR: Memor esto
!!!OTL: Kyrie
**kern	**kern	**kern	**kern	**kern
*Ibass	*Itenor	*Itenor	*Icalto	*Icant
!Bassus	!Tenor 2	!Tenor 1	!Altus	!Cantus
*clefF4	*clefGv2	*clefGv2	*clefG2	*clefG2
*k[b-]	*k[b-]	*k[b-]	*k[b-]	*k[b-]
*G:dor	*G:dor	*G:dor	*G:dor	*G:dor
*M4/2	*M4/2	*M4/2	*M4/2	*M4/2
=1	=1	=1	=1	=1
0r	0r	0r	1.g	0r
.	.	.	2g	.
=2	=2	=2	=2	=2
0r	0r	0r	1g	0r
.	.	.	1f	.
=3	=3	=3	=3	=3
0r	0r	0r	2.b-	1.dd
.	.	.	4a	.
.	.	.	2g	.
.	.	.	2f	2dd
=4	=4	=4	=4	=4
0r	0r	0r	2g	1dd
.	.	.	2d	.
.	.	.	1e-	1cc
=5	=5	=5	=5	=5
2r	0r	0r	2d	2.ff
1B-	.	.	2f	.
.	.	.	.	4ee-
.	.	.	2g	2dd
2A	.	.	2a	2cc
=6	=6	=6	=6	=6
2G	1.d	0r	2b-	2dd
2F	.	.	2.a	2a
1G	.	.	.	1b-
.	.	.	4g	.
.	2d	.	2g	.
=7	=7	=7	=7	=7
2.D	1d	0r	4f	2a
.	.	.	4d	.
.	.	.	4f	1ff
4E	.	.	4g	.
4F	1c	.	[1a	.
4G	.	.	.	.
2A	.	.	.	2ee
=8	=8	=8	=8	=8
1D	2.f	2r	0a]	2.dd
.	.	1f	.	.
.	4e	.	.	4cc
1r	2d	.	.	2dd
.	2c	2e	.	2ee
=9	=9	=9	=9	=9
0r	2d	2d	1a	2ff
.	2A	2c	.	2.ee
.	1B-	1d	2f	.
.	.	.	.	4dd
.	.	.	2g	[2dd
=10	=10	=10	=10	=10
1r	1A	1e	1a	2dd]
.	.	.	.	2cc#
[1G	2r	[1d	1b-	[1dd
.	2G	.	.	.
=11	=11	=11	=11	=11
2G]	2.B-	0d]	1g	2dd]
2G	.	.	.	2g
.	4c	.	.	.
1G	2d	.	2r	4b-
.	.	.	.	4cc
.	2B-	.	[2b-	4dd
.	.	.	.	4ee
=12	=12	=12	=12	=12
1F	1c	1r	2b-]	2ff
.	.	.	2a	2cc
2.B-	2r	[1d	2g	1dd
.	[2B-	.	2f	.
4A	.	.	.	.
=13	=13	=13	=13	=13
2G	2B-]	2d]	2g	0dd
2F	2A	2d	2a	.
2G	2G	1d	2b-	.
2D	2F	.	[2a	.
=14	=14	=14	=14	=14
1E-	1G	1c	4a]	1r
.	.	.	4g	.
.	.	.	2g	.
2.D	1d	2.f	2b-	2r
.	.	.	4a	[2ff
4E	.	4e	4g	.
=15	=15	=15	=15	=15
4F	1A	2d	1a	2ff]
4G	.	.	.	.
2A	.	2c	.	2ee
2D	2.f	2d	2b-	2dd
2F	.	2A	[2a	2cc
.	4e	.	.	.
=16	=16	=16	=16	=16
2.BB-	2d	1B-	4a]	1.dd
.	.	.	4g	.
.	2d	.	1g	.
4C	.	.	.	.
1D	1d	1A	.	.
.	.	.	2f#	2a
=17	=17	=17	=17	=17
0G	0d	0G	0g	0b
=18	=18	=18	=18	=18
0r	1.g	0r	0r	0r
.	2f#	.	.	.
=19	=19	=19	=19	=19
0r	2g	1r	0r	1.dd
.	2d	.	.	.
.	1e-	[1g	.	.
.	.	.	.	2cc
=20	=20	=20	=20	=20
0r	1d	2g]	0r	2dd
.	.	2f#	.	2a
.	4G	2g	.	1b-
.	4A	.	.	.
.	4B-	2d	.	.
.	4c	.	.	.
=21	=21	=21	=21	=21
2r	1d	1f	0r	[0a
1d	.	.	.	.
.	1A	1e	.	.
2c#	.	.	.	.
=22	=22	=22	=22	=22
2d	2f	2d	2r	1a]
2A	2e	2c	1a	.
1B-	1d	2f	.	2r
.	.	4e	2g	[2dd
.	.	4d	.	.
=23	=23	=23	=23	=23
1A	2r	1e	2a	2dd]
.	1a	.	2e	2cc
1r	.	1d	1f	2dd
.	2f	.	.	2a
=24	=24	=24	=24	=24
2r	1g	1G	1d	1.b-
1G	.	.	.	.
.	[1d	1r	2r	.
2F#	.	.	2a	2a
=25	=25	=25	=25	=25
2G	1d]	2r	2b-	2g
2D	.	1d	2.a	2f
1E-	1r	.	.	2.g
.	.	.	4g	.
.	.	2c	[2g	.
.	.	.	.	4a
=26	=26	=26	=26	=26
1D	2r	1d	4g]	2b-
.	.	.	4f	.
.	1d	.	4f	4a
.	.	.	8e	4g
.	.	.	8d	.
1r	.	1A	1e	2a
.	2c#	.	.	2ee
=27	=27	=27	=27	=27
0r	2d	2.a	2d	2ff
.	2A	.	2c#	2.ee
.	.	4g	.	.
.	1B-	2f	1d	.
.	.	.	.	4dd
.	.	4e	.	[2dd
.	.	4d	.	.
=28	=28	=28	=28	=28
1r	1A	2e	1a	2dd]
.	.	2e	.	2cc#
2r	1d	2.f	2a	2dd
[2B-	.	.	[2f	2dd
.	.	4e	.	.
=29	=29	=29	=29	=29
2B-]	1r	2d	4f]	2.ff
.	.	.	4g	.
2A	.	2c	2a	.
.	.	.	.	4ee
2B-	2r	2B-	2.f	2dd
2F	[2f	2A	.	[2cc
.	.	.	4e	.
=30	=30	=30	=30	=30
1G	2f]	1B-	2d	4cc]
.	.	.	.	4b-
.	2e	.	2B-	1b-
1F	2f	1c	2r	.
.	2c	.	[2f	2a
=31	=31	=31	=31	=31
0r	1d	1B-	4f]	2b-
.	.	.	4e	.
.	.	.	4f	1dd
.	.	.	4g	.
.	2e	1A	2a	.
.	[2a	.	2e	2cc#
=32	=32	=32	=32	=32
0r	2a]	2d	2f	2dd
.	2f	2d	2d	2a
.	2.g	1G	2r	1b-
.	.	.	2d	.
.	4f	.	.	.
=33	=33	=33	=33	=33
2r	2e	[0A	2c#	[0a
1D	1f	.	1d	.
2C#	2e	.	2e	.
=34	=34	=34	=34	=34
2D	2d	1A_	2f	1a_
2AA	2c#	.	2e	.
1D	1d	1A_	1f	1a_
=35	=35	=35	=35	=35
0AA	0c#	0A]	0e	0a]
=36	=36	=36	=36	=36
0r	0r	1d	1r	0r
.	.	2d	1a	.
.	.	[2d	.	.
=37	=37	=37	=37	=37
0r	0r	2d]	2a	1r
.	.	2c	1a	.
.	.	[1B-	.	1dd
.	.	.	2g	.
=38	=38	=38	=38	=38
0r	0r	1B-]	2f	2dd
.	.	.	4e	1dd
.	.	.	4d	.
.	.	1A	2e	.
.	.	.	2f	2cc
=39	=39	=39	=39	=39
0r	1d	4G	2g	2b-
.	.	4A	.	.
.	.	4B-	4f	2b-
.	.	4c	4e	.
.	2d	4d	4f	[1a
.	.	4e	4e	.
.	[2d	[2f	2d	.
=40	=40	=40	=40	=40
0r	2d]	2f]	2A	1a]
.	2c	2e	1a	.
.	2B-	1d	.	2r
.	2B-	.	2g	[2dd
=41	=41	=41	=41	=41
0r	1A	2r	2a	2dd]
.	.	1a	2e	2cc
.	1r	.	2f	2dd
.	.	2g	2e	2ee
=42	=42	=42	=42	=42
0r	2r	4a	1d	2ff
.	.	4g	.	.
.	1d	4f	.	2dd
.	.	4e	.	.
.	.	2d	[1a	2ff
.	2c	2e	.	2ee
=43	=43	=43	=43	=43
2r	2d	2f	0a]	2dd
1A	2e	1e	.	1cc
.	1f	.	.	.
2F	.	[2d	.	2a
=44	=44	=44	=44	=44
2G	1e	2d]	1r	2b-
2A	.	2c	.	4a
.	.	.	.	4g
1B-	[1d	2d	2r	2f
.	.	2G	[2g	2d
=45	=45	=45	=45	=45
2G	1d]	2.B-	2g]	2r
1B-	.	.	2f	1dd
.	.	4c	.	.
.	1r	4d	2g	.
.	.	4e	.	.
2A	.	4f	2a	2cc
.	.	4e	.	.
=46	=46	=46	=46	=46
1G	2r	1g	1b-	2dd
.	2g	.	.	2ee
2r	2f	4d	[1a	1ff
.	.	4e	.	.
2d	4d	4f	.	.
.	4e	4g	.	.
=47	=47	=47	=47	=47
2d	4f	2a	0a]	2dd
.	4g	.	.	.
1d	2a	2d	.	1ff
.	2d	2r	.	.
2c	2e	[2a	.	[2ee
=48	=48	=48	=48	=48
1B-	2f	2a]	1r	4ee]
.	.	.	.	4dd
.	4e	2g	.	1dd
.	4d	.	.	.
1A	1e	2a	2r	.
.	.	2e	[2a	2cc#
=49	=49	=49	=49	=49
1D	1d	4f	2a]	1dd
.	.	4e	.	.
.	.	4d	2f	.
.	.	4c	.	.
2r	2G	2B-	2g	[1dd
2D	2F#	2A	2a	.
=50	=50	=50	=50	=50
2G	4G	2G	2b-	2dd]
.	4A	.	.	.
1G	4B-	2d	2g	2dd
.	4c	.	.	.
.	1d	2G	2b-	2.dd
2F#	.	2A	[2a	.
.	.	.	.	4cc
=51	=51	=51	=51	=51
1G	1d	1B-	4a]	2b-
.	.	.	4g	.
.	.	.	1g	2g
1D	1d	1A	.	1a
.	.	.	2f#	.
=52	=52	=52	=52	=52
0G	0d	0G	0g	0b
==	==	==	==	==
*-	*-	*-	*-	*-
!!!CDT: 1525/^1526/-1594/2/2
!!!OCY: Italia
!!!AGN: Mass (Parody)
!!!AST: renaissance, vocal
!!!ASW: Motet 1572 (Palestrina)
!!!PWK: Masses, Book 8
!!!RNB: Cadence finals: A,D
!!!YOR: Le Opere Complete, v. 24, p. 86
!!!YOO: Rome, Italy: Fratelli Scalera
!!!END: 1992//
!!!EED: John Miller
!!!YEC: Copyright 2000, John Miller
!!!YEN: United States of America
!!!YEM: Rights to all derivative electronic formats reserved.
!!!YEM: Refer to licensing agreement for further details.
!!!YEM: This file must be accompanied by the licensing agreement.
!!!YEM: A copy of the licensing agreement may be found at http://www.music-cog.ohio-state.edu/HumdrumDatabases/Palestrina/license.txt
!!!EMD: converted to Humdrum by Bret Aarden
